neru-dark-classic/22x22/status/media-playlist-repeat-symbolic-rtl.svg

<svg xmlns="http://www.w3.org/2000/svg" width="22" height="22"><path d="M13 5v2h2c1.662 0 3 1.338 3 3v4c0 1.662-1.338 3-3 3H7c-1.662 0-3-1.338-3-3v-4c0-1.662 1.338-3 3-3h1v2H7c-.554 0-1 .446-1 1v4c0 .554.446 1 1 1h8c.554 0 1-.446 1-1v-4c0-.554-.446-1-1-1h-2v2L9 8z" fill="#d1d9e3"/></svg>

<?xml version="1.0" encoding="UTF-8" standalone="no"?>
<svg
   xmlns:dc="http://purl.org/dc/elements/1.1/"
   xmlns:cc="http://creativecommons.org/ns#"
   xmlns:rdf="http://www.w3.org/1999/02/22-rdf-syntax-ns#"
   xmlns:svg="http://www.w3.org/2000/svg"
   xmlns="http://www.w3.org/2000/svg"
   xmlns:sodipodi="http://sodipodi.sourceforge.net/DTD/sodipodi-0.dtd"
   xmlns:inkscape="http://www.inkscape.org/namespaces/inkscape"
   width="22"
   height="22"
   version="1.1"
   id="svg4"
   sodipodi:docname="media-playlist-repeat-symbolic-rtl.svg"
   inkscape:version="0.92.1 r">
  <metadata
     id="metadata10">
    <rdf:RDF>
      <cc:Work
         rdf:about="">
        <dc:format>image/svg+xml</dc:format>
        <dc:type
           rdf:resource="http://purl.org/dc/dcmitype/StillImage" />
      </cc:Work>
    </rdf:RDF>
  </metadata>
  <defs
     id="defs8" />
  <sodipodi:namedview
     pagecolor="#ffffff"
     bordercolor="#666666"
     borderopacity="1"
     objecttolerance="10"
     gridtolerance="10"
     guidetolerance="10"
     inkscape:pageopacity="0"
     inkscape:pageshadow="2"
     inkscape:window-width="769"
     inkscape:window-height="480"
     id="namedview6"
     showgrid="false"
     inkscape:zoom="10.727273"
     inkscape:cx="-1.6779661"
     inkscape:cy="11"
     inkscape:window-x="0"
     inkscape:window-y="0"
     inkscape:window-maximized="0"
     inkscape:current-layer="svg4" />
  <path
     style="fill:#d1d9e3"
     d="m 13,5 v 2 h 2 c 1.662,0 3,1.338 3,3 v 4 c 0,1.662 -1.338,3 -3,3 H 7 C 5.338,17 4,15.662 4,14 V 10 C 4,8.338 5.338,7 7,7 H 8 V 9 H 7 C 6.446,9 6,9.446 6,10 v 4 c 0,0.554 0.446,1 1,1 h 8 c 0.554,0 1,-0.446 1,-1 V 10 C 16,9.446 15.554,9 15,9 h -2 v 2 L 9,8 Z"
     id="path2"
     inkscape:connector-curvature="0" />
</svg>
